X: 2090
T: Athernie Lodge
R: jig
M: 6/8
K: Amixolydian
|:ed|c2A A^GA|dcd e2c|Ace efg|BGB dcB|
c2A A^GA|dcd e2c|Ace dcB|A3 A:|
|:fg|agf gfe|fed e2c|Ace efg|BGB dcB|
[1 agf gfe|fed e2c|Ace dcB|A3 A:|
[2 c2A A^GA|dcd e2c|Ace dcB|A3 A||

